X: 28712
T: My Darling Asleep
R: jig
M: 6/8
K: Dmajor
e|:fdd cAA|BGB ~A2G|FAA def|~g3 efg|
fdd cAA|BGB ~A2G|FAA def|1 gec d2e:|2 gec d2A||
|:FAA BAG|FAA Bcd|FAA def|~g3 efg|
fed cBA|BAG ~A2G|FAA def|1 gec d2A:|2 gec d2e||

